Newaita/actions/22/format-text-uppercase.svg

<svg height="22" viewBox="0 0 22 22" width="22" xmlns="http://www.w3.org/2000/svg"><g fill="#424242"><path d="m6.367188 8.359375c-2.015626 0-3.636719 1.214844-3.636719 2.726563v8.1875h1.816406v-3.636719h3.640625v3.636719h1.816406v-8.1875c0-1.511719-1.621094-2.726563-3.636718-2.726563zm0 1.816406c1.007812 0 1.820312.40625 1.820312.910157v2.730468h-3.640625v-2.730468c0-.503907.8125-.910157 1.820313-.910157zm0 0"/><path d="m12.28125 7.449219h6.367188l-3.183594-4.546875zm0 0"/><path d="m11.824219 8.359375v10.914063h3.183593c2.269532 0 4.09375-1.519532 4.09375-3.410157v-.457031c0-1.179688-.714843-2.21875-1.804687-2.828125.277344-.429687.441406-.941406.441406-1.492187 0-1.511719-1.21875-2.726563-2.730469-2.726563zm1.820312 1.816406h1.363281c.503907 0 .910157.40625.910157.910157 0 .503906-.40625.910156-.910157.910156h-1.363281zm0 3.640625h1.363281c1.261719 0 2.273438.8125 2.273438 1.820313 0 1.007812-1.011719 1.816406-2.273438 1.816406h-1.363281zm0 0"/></g></svg>

<svg xmlns="http://www.w3.org/2000/svg" xmlns:xlink="http://www.w3.org/1999/xlink" width="22px" height="22px" viewBox="0 0 22 22" version="1.1">
<g id="surface1">
     <defs>
  <style id="current-color-scheme" type="text/css">
   .ColorScheme-Text { color:#424242; } .ColorScheme-Highlight { color:#eeeeee; }
  </style>
 </defs>
<path style="fill:currentColor" class="ColorScheme-Text" d="M 6.367188 8.359375 C 4.351562 8.359375 2.730469 9.574219 2.730469 11.085938 L 2.730469 19.273438 L 4.546875 19.273438 L 4.546875 15.636719 L 8.1875 15.636719 L 8.1875 19.273438 L 10.003906 19.273438 L 10.003906 11.085938 C 10.003906 9.574219 8.382812 8.359375 6.367188 8.359375 Z M 6.367188 10.175781 C 7.375 10.175781 8.1875 10.582031 8.1875 11.085938 L 8.1875 13.816406 L 4.546875 13.816406 L 4.546875 11.085938 C 4.546875 10.582031 5.359375 10.175781 6.367188 10.175781 Z M 6.367188 10.175781 "/>
     <defs>
  <style id="current-color-scheme" type="text/css">
   .ColorScheme-Text { color:#424242; } .ColorScheme-Highlight { color:#eeeeee; }
  </style>
 </defs>
<path style="fill:currentColor" class="ColorScheme-Text" d="M 12.28125 7.449219 L 18.648438 7.449219 L 15.464844 2.902344 Z M 12.28125 7.449219 "/>
     <defs>
  <style id="current-color-scheme" type="text/css">
   .ColorScheme-Text { color:#424242; } .ColorScheme-Highlight { color:#eeeeee; }
  </style>
 </defs>
<path style="fill:currentColor" class="ColorScheme-Text" d="M 11.824219 8.359375 L 11.824219 19.273438 L 15.007812 19.273438 C 17.277344 19.273438 19.101562 17.753906 19.101562 15.863281 L 19.101562 15.40625 C 19.101562 14.226562 18.386719 13.1875 17.296875 12.578125 C 17.574219 12.148438 17.738281 11.636719 17.738281 11.085938 C 17.738281 9.574219 16.519531 8.359375 15.007812 8.359375 Z M 13.644531 10.175781 L 15.007812 10.175781 C 15.511719 10.175781 15.917969 10.582031 15.917969 11.085938 C 15.917969 11.589844 15.511719 11.996094 15.007812 11.996094 L 13.644531 11.996094 Z M 13.644531 13.816406 L 15.007812 13.816406 C 16.269531 13.816406 17.28125 14.628906 17.28125 15.636719 C 17.28125 16.644531 16.269531 17.453125 15.007812 17.453125 L 13.644531 17.453125 Z M 13.644531 13.816406 "/>
</g>
</svg>
